icons/glyphs/glyph-paint-palette.svg

<?xml version="1.0" encoding="UTF-8" standalone="no"?><svg height="16" viewBox="0 0 4.2333332 4.2333332" width="16" xmlns="http://www.w3.org/2000/svg"><sodipodi:namedview/><metadata><rdf:RDF><cc:Work><dc:format>image/svg+xml</dc:format><dc:type/><dc:title/></cc:Work></rdf:RDF></metadata><path d="m1.7286269.16500928c-.06285.00773-.125127.017892-.1868901.03029-1.20541693.2346288-1.84188413 1.55182262-1.40247913 2.48195552.5888364 1.2464475 2.17525493 1.7353327 3.85213113 1.1972493.4942522-.1749335.1323932-.7533567-.2087787-.6388964-.3411749.1144362-.5557552-.4394827-.1833355-.5603706.3724324-.1208539.6333926-.6418135.4295124-1.2709906-.3305223-1.01996262-1.3579944-1.35905062-2.3001052-1.23886282zm.1153322.3264713a.26706293.21957797 81.67658 0 1  .2558132.2324797.26706293.21957797 81.67658 0 1 -.1784927.29602072.26706293.21957797 81.67658 0 1 -.255813-.23247972.26706293.21957797 81.67658 0 1  .1784925-.2960207zm1.0342248.1766205a.21957797.26706293 38.050545 0 1  .1429814.038555.21957797.26706293 38.050545 0 1  .00836.34579762.21957797.26706293 38.050545 0 1 -.3375562.074743.21957797.26706293 38.050545 0 1 -.00831-.34544272.21957797.26706293 38.050545 0 1  .1945235-.1136533zm-1.98757303.2999736a.26706293.21957797 34.922278 0 1  .21230043.053034.26706293.21957797 34.922278 0 1  .093155.3330203.26706293.21957797 34.922278 0 1 -.34456003.026887.26706293.21957797 34.922278 0 1 -.093103-.3326703.26706293.21957797 34.922278 0 1  .1321999-.080315zm-.2263152.89534062a.21957797.26706293 81.315235 0 1  .2972481.1768442.21957797.26706293 81.315235 0 1 -.2307795.2574023.21957797.26706293 81.315235 0 1 -.2972487-.1768492.21957797.26706293 81.315235 0 1  .2307801-.2573973zm2.76942323-.3724947a.21957797.26706296 81.341277 0 1  .2968885.1768979.21957797.26706296 81.341277 0 1 -.2307799.2574021.21957797.26706296 81.341277 0 1 -.2972474-.1768442.21957797.26706296 81.341277 0 1  .2311388-.2574558z" fill="#d0d0d0" shape-rendering="crispEdges"/></svg>

<?xml version="1.0" encoding="UTF-8" standalone="no"?>
<!-- Created with Inkscape (http://www.inkscape.org/) -->

<svg
   xmlns:dc="http://purl.org/dc/elements/1.1/"
   xmlns:cc="http://creativecommons.org/ns#"
   xmlns:rdf="http://www.w3.org/1999/02/22-rdf-syntax-ns#"
   xmlns:svg="http://www.w3.org/2000/svg"
   xmlns="http://www.w3.org/2000/svg"
   xmlns:sodipodi="http://sodipodi.sourceforge.net/DTD/sodipodi-0.dtd"
   xmlns:inkscape="http://www.inkscape.org/namespaces/inkscape"
   width="16"
   height="16"
   viewBox="0 0 4.2333332 4.2333332"
   version="1.1"
   id="svg8"
   inkscape:version="0.92+devel (4546dc857e, 2017-07-25, custom)"
   sodipodi:docname="glyph-paint-palette.svg">
  <defs
     id="defs2" />
  <sodipodi:namedview
     id="base"
     pagecolor="#002466"
     bordercolor="#ffffff"
     borderopacity="0.38039216"
     inkscape:pageopacity="1"
     inkscape:pageshadow="2"
     inkscape:zoom="36.415999"
     inkscape:cx="10.094581"
     inkscape:cy="7.9162778"
     inkscape:document-units="px"
     inkscape:current-layer="svg8"
     inkscape:document-rotation="0"
     showgrid="false"
     inkscape:showpageshadow="false"
     borderlayer="true"
     inkscape:window-width="1920"
     inkscape:window-height="1051"
     inkscape:window-x="0"
     inkscape:window-y="0"
     inkscape:window-maximized="1"
     units="px" />
  <metadata
     id="metadata5">
    <rdf:RDF>
      <cc:Work
         rdf:about="">
        <dc:format>image/svg+xml</dc:format>
        <dc:type
           rdf:resource="http://purl.org/dc/dcmitype/StillImage" />
        <dc:title></dc:title>
      </cc:Work>
    </rdf:RDF>
  </metadata>
  <path
     id="path7750"
     d="m 1.7286269,0.16500928 c -0.06285,0.00773 -0.125127,0.017892 -0.1868901,0.03029 C 0.33631987,0.42992808 -0.30014733,1.7471219 0.13925767,2.6772548 0.72809407,3.9237023 2.3145126,4.4125875 3.9913888,3.8745041 4.485641,3.6995706 4.123782,3.1211474 3.7826101,3.2356077 3.4414352,3.3500439 3.2268549,2.796125 3.5992746,2.6752371 3.971707,2.5543832 4.2326672,2.0334236 4.028787,1.4042465 3.6982647,0.38428388 2.6707926,0.04519588 1.7286818,0.16538368 Z m 0.1153322,0.3264713 A 0.26706293,0.21957797 81.67658 0 1 2.0997723,0.72396028 0.26706293,0.21957797 81.67658 0 1 1.9212796,1.019981 0.26706293,0.21957797 81.67658 0 1 1.6654666,0.78750128 0.26706293,0.21957797 81.67658 0 1 1.8439591,0.49148058 Z m 1.0342248,0.1766205 a 0.21957797,0.26706293 38.050545 0 1 0.1429814,0.038555 0.21957797,0.26706293 38.050545 0 1 0.00836,0.34579762 0.21957797,0.26706293 38.050545 0 1 -0.3375562,0.074743 0.21957797,0.26706293 38.050545 0 1 -0.00831,-0.34544272 0.21957797,0.26706293 38.050545 0 1 0.1945235,-0.1136533 z m -1.98757303,0.2999736 a 0.26706293,0.21957797 34.922278 0 1 0.21230043,0.053034 0.26706293,0.21957797 34.922278 0 1 0.093155,0.3330203 0.26706293,0.21957797 34.922278 0 1 -0.34456003,0.026887 0.26706293,0.21957797 34.922278 0 1 -0.093103,-0.3326703 0.26706293,0.21957797 34.922278 0 1 0.1321999,-0.080315 z M 0.66429567,1.8634153 A 0.21957797,0.26706293 81.315235 0 1 0.96154377,2.0402595 0.21957797,0.26706293 81.315235 0 1 0.73076427,2.2976618 0.21957797,0.26706293 81.315235 0 1 0.43351557,2.1208126 0.21957797,0.26706293 81.315235 0 1 0.66429567,1.8634153 Z M 3.4337189,1.4909206 A 0.21957797,0.26706296 81.341277 0 1 3.7306074,1.6678185 0.21957797,0.26706296 81.341277 0 1 3.4998275,1.9252206 0.21957797,0.26706296 81.341277 0 1 3.2025801,1.7483764 0.21957797,0.26706296 81.341277 0 1 3.4337189,1.4909206 Z"
     style="fill:#d0d0d0;fill-opacity:1;stroke:none;stroke-width:0.27723718;shape-rendering:crispEdges"
     inkscape:connector-curvature="0"
     inkscape:label="#1" />
</svg>
